boundlessconnect/icons/envelope.svg

<svg height="50.285702" viewBox="0 0 64 50.285702" width="64" xmlns="http://www.w3.org/2000/svg"><path d="m64 16.2143v28.3571q0 2.3572-1.678571 4.0357-1.678572 1.6786-4.035715 1.6786h-52.5714283q-2.3571428 0-4.0357143-1.6786-1.6785714-1.6785-1.6785714-4.0357v-28.3571q1.5714286 1.75 3.6071429 3.1071 12.9285711 8.7857 17.7500001 12.3214 2.035714 1.5 3.303571 2.3393 1.267857.8393 3.375 1.7143 2.107143.875 3.928572.875h.07143q1.821429 0 3.928572-.875 2.107143-.875 3.375-1.7143 1.267857-.8393 3.303571-2.3393 6.071429-4.3928 17.785714-12.3214 2.035715-1.3928 3.571429-3.1071zm0-10.5q0 2.8214-1.75 5.3928-1.75 2.5715-4.357143 4.3929-13.428571 9.3214-16.714286 11.6071-.357142.25-1.517857 1.0893-1.160714.8393-1.928571 1.3572-.767857.5178-1.857143 1.1607-1.089286.6428-2.053571.9643-.964286.3214-1.785715.3214h-.07143q-.821429 0-1.785715-.3214-.964285-.3215-2.053571-.9643-1.089286-.6429-1.857143-1.1607-.767857-.5179-1.928571-1.3572-1.160715-.8393-1.517857-1.0893-3.25-2.2857-9.357143-6.5178-6.1071431-4.2322-7.3214289-5.0893-2.2142857-1.5-4.1785714-4.125-1.9642837-2.625-1.9642837-4.875 0-2.7857 1.4821429-4.6429 1.4821428-1.8571 4.2321428-1.8571h52.5714283q2.321429 0 4.017857 1.6786 1.696429 1.6785 1.696429 4.0357z"/></svg>

<?xml version="1.0" encoding="UTF-8" standalone="no"?>
<svg
   xmlns:dc="http://purl.org/dc/elements/1.1/"
   xmlns:cc="http://creativecommons.org/ns#"
   xmlns:rdf="http://www.w3.org/1999/02/22-rdf-syntax-ns#"
   xmlns:svg="http://www.w3.org/2000/svg"
   xmlns="http://www.w3.org/2000/svg"
   xmlns:sodipodi="http://sodipodi.sourceforge.net/DTD/sodipodi-0.dtd"
   xmlns:inkscape="http://www.inkscape.org/namespaces/inkscape"
   width="64"
   height="50.285702"
   viewBox="0 0 64 50.285702"
   id="svg3030"
   version="1.1"
   inkscape:version="0.48.5 r10040"
   sodipodi:docname="envelope.svg">
  <metadata
     id="metadata3038">
    <rdf:RDF>
      <cc:Work
         rdf:about="">
        <dc:format>image/svg+xml</dc:format>
        <dc:type
           rdf:resource="http://purl.org/dc/dcmitype/StillImage" />
      </cc:Work>
    </rdf:RDF>
  </metadata>
  <defs
     id="defs3036" />
  <sodipodi:namedview
     pagecolor="#ffffff"
     bordercolor="#666666"
     borderopacity="1"
     objecttolerance="10"
     gridtolerance="10"
     guidetolerance="10"
     inkscape:pageopacity="0"
     inkscape:pageshadow="2"
     inkscape:window-width="1362"
     inkscape:window-height="745"
     id="namedview3034"
     showgrid="false"
     fit-margin-top="0"
     fit-margin-left="0"
     fit-margin-right="0"
     fit-margin-bottom="0"
     inkscape:zoom="1.0535714"
     inkscape:cx="-499.30299"
     inkscape:cy="-68.383186"
     inkscape:window-x="2"
     inkscape:window-y="0"
     inkscape:window-maximized="1"
     inkscape:current-layer="svg3030" />
  <path
     d="m 64,16.2143 v 28.3571 q 0,2.3572 -1.678571,4.0357 -1.678572,1.6786 -4.035715,1.6786 H 5.7142857 q -2.3571428,0 -4.0357143,-1.6786 Q 0,46.9286 0,44.5714 V 16.2143 q 1.5714286,1.75 3.6071429,3.1071 12.9285711,8.7857 17.7500001,12.3214 2.035714,1.5 3.303571,2.3393 1.267857,0.8393 3.375,1.7143 2.107143,0.875 3.928572,0.875 h 0.07143 q 1.821429,0 3.928572,-0.875 2.107143,-0.875 3.375,-1.7143 1.267857,-0.8393 3.303571,-2.3393 6.071429,-4.3928 17.785714,-12.3214 2.035715,-1.3928 3.571429,-3.1071 z m 0,-10.5 q 0,2.8214 -1.75,5.3928 -1.75,2.5715 -4.357143,4.3929 -13.428571,9.3214 -16.714286,11.6071 -0.357142,0.25 -1.517857,1.0893 Q 38.5,29.0357 37.732143,29.5536 36.964286,30.0714 35.875,30.7143 34.785714,31.3571 33.821429,31.6786 32.857143,32 32.035714,32 h -0.07143 q -0.821429,0 -1.785715,-0.3214 -0.964285,-0.3215 -2.053571,-0.9643 -1.089286,-0.6429 -1.857143,-1.1607 -0.767857,-0.5179 -1.928571,-1.3572 -1.160715,-0.8393 -1.517857,-1.0893 -3.25,-2.2857 -9.357143,-6.5178 Q 7.3571409,16.3571 6.1428551,15.5 3.9285694,14 1.9642837,11.375 0,8.75 0,6.5 0,3.7143 1.4821429,1.8571 2.9642857,0 5.7142857,0 H 58.285714 Q 60.607143,0 62.303571,1.6786 64,3.3571 64,5.7143 z"
     id="path3032"
     inkscape:connector-curvature="0" />
</svg>
